; generated by PrusaSlicer 2.9.2 on 2025-05-25 at 18:43:44 UTC

; 

; external perimeters extrusion width = 0.42mm
; perimeters extrusion width = 0.44mm
; infill extrusion width = 0.44mm
; solid infill extrusion width = 0.44mm
; top infill extrusion width = 0.40mm
; first layer extrusion width = 0.42mm

M201 X500 Y500 Z100 E5000 ; sets maximum accelerations, mm/sec^2
M203 X500 Y500 Z10 E60 ; sets maximum feedrates, mm / sec
M204 S500 T1000 ; sets acceleration (S) and retract acceleration (R), mm/sec^2
M205 X8.00 Y8.00 Z0.40 E5.00 ; sets the jerk limits, mm/sec
M205 S0 T0 ; sets the minimum extruding and travel feed rate, mm/sec

; printing object encaixe_eixo_teste.stl id:0 copy 0
; stop printing object encaixe_eixo_teste.stl id:0 copy 0

;TYPE:Custom
G90 ; use absolute coordinates
M83 ; extruder relative mode
M104 S150 ; set temporary nozzle temp to prevent oozing during homing
M140 S60 ; set final bed temp
G4 S30 ; allow partial nozzle warmup
G28 ; home all axis
G1 Z50 F240
G1 X2.0 Y10 F3000
M104 S215 ; set final nozzle temp
M190 S60 ; wait for bed temp to stabilize
M109 S215 ; wait for nozzle temp to stabilize
G1 Z0.28 F240
G92 E0
G1 X2.0 Y140 E10 F1500 ; prime the nozzle
G1 X2.3 Y140 F5000
G92 E0
G1 X2.3 Y10 E10 F1200 ; prime the nozzle
G92 E0
G21 ; set units to millimeters
G90 ; use absolute coordinates
M83 ; use relative distances for extrusion
; Filament gcode
M107
;LAYER_CHANGE
;Z:0.2
;HEIGHT:0.2
G1 E-5 F3600
G1 Z.2 F4200
G1 X98.834 Y85.857
G1 Z.2
G1 E5 F2400
M204 S100
;TYPE:Skirt/Brim
;WIDTH:0.42
G1 F600
G1 X101.021 Y83.615 E.09329
G1 X102.464 Y82.566 E.05314
G1 X104.809 Y81.371 E.0784
G1 X106.019 Y80.936 E.0383
G1 X109.105 Y80.407 E.09326
G1 X110.891 Y80.407 E.0532
G1 X113.494 Y80.819 E.0785
G1 X114.729 Y81.179 E.03832
G1 X117.537 Y82.566 E.09329
G1 X118.602 Y83.292 E.03839
G1 X120.842 Y85.48 E.09327
G1 X121.625 Y86.491 E.03809
G1 X123.083 Y89.26 E.09321
G1 X123.521 Y90.478 E.03855
G1 X124.086 Y94.064 E.10813
G1 X124.086 Y125.939 E.94945
G1 X123.638 Y129.035 E.09318
G1 X123.083 Y130.742 E.05347
G1 X121.625 Y133.511 E.09321
G1 X120.842 Y134.522 E.03809
G1 X118.983 Y136.384 E.07837
G1 X117.537 Y137.436 E.05326
G1 X114.726 Y138.824 E.09338
G1 X113.486 Y139.184 E.03846
G1 X110.885 Y139.594 E.07843
G1 X109.607 Y139.632 E.03808
G1 X106.512 Y139.184 E.09315
G1 X105.274 Y138.824 E.0384
G1 X102.464 Y137.436 E.09335
G1 X101.401 Y136.712 E.03831
G1 X99.159 Y134.525 E.09329
G1 X98.371 Y133.508 E.03832
G1 X96.914 Y130.736 E.09328
G1 X96.479 Y129.522 E.03841
G1 X95.914 Y125.939 E.10804
G1 X95.914 Y94.064 E.94945
G1 X96.362 Y90.968 E.09318
G1 X96.914 Y89.266 E.0533
G1 X98.11 Y86.92 E.07844
G1 X98.8 Y85.907 E.03651
G1 E-3.5 F3600
;WIPE_START
G1 F3360
G1 X98.834 Y85.857 E-.06154
G1 X99.821 Y84.845 E-1.43846
;WIPE_END
G1 X101.434 Y88.192 F4200
G1 E5 F2400
G1 F600
G1 X103.423 Y86.122 E.08551
G1 X107.086 Y84.246 E.12259
G1 X109.551 Y83.855 E.07434
G1 X111 Y83.946 E.04325
G1 X113.702 Y84.51 E.08222
G1 X116.356 Y85.961 E.0901
G1 X118.668 Y88.34 E.09881
G1 X120.185 Y91.475 E.10374
G1 X120.608 Y94.673 E.09609
G1 X120.046 Y97.872 E.09675
G1 X118.597 Y100.673 E.09394
G1 X117.169 Y102.166 E.06154
G1 X118.453 Y103.444 E.05396
G1 X120.014 Y106.346 E.09815
G1 X120.608 Y110.104 E.11333
G1 X120.033 Y113.31 E.09702
G1 X118.638 Y116.016 E.09068
G1 X117.016 Y117.731 E.07031
G1 X118.575 Y119.299 E.06586
G1 X120.066 Y122.187 E.09681
G1 X120.603 Y125.958 E.11346
G1 X119.945 Y129.254 E.10011
G1 X118.566 Y131.807 E.08643
G1 X116.587 Y133.871 E.08517
G1 X113.305 Y135.629 E.1109
G1 X109.591 Y136.149 E.11171
G1 X106.398 Y135.528 E.09689
G1 X103.532 Y133.959 E.09732
G1 X101.363 Y131.707 E.09313
G1 X99.815 Y128.526 E.10537
G1 X99.392 Y125.326 E.09615
G1 X99.955 Y122.124 E.09684
G1 X101.438 Y119.278 E.09559
G1 X102.965 Y117.697 E.06547
G1 X101.478 Y116.179 E.0633
G1 X99.896 Y113.093 E.1033
G1 X99.394 Y109.589 E.10544
G1 X100.011 Y106.273 E.10047
G1 X101.405 Y103.632 E.08895
G1 X102.838 Y102.148 E.06145
G1 X101.37 Y100.629 E.06292
G1 X99.91 Y97.739 E.09644
G1 X99.396 Y94.106 E.10929
G1 X100.055 Y90.749 E.1019
G1 X101.406 Y88.245 E.08475
G1 X101.724 Y88.435 F4200
G1 F600
G1 X103.673 Y86.406 E.0838
G1 X107.175 Y84.614 E.11718
G1 X109.589 Y84.231 E.0728
G1 X110.962 Y84.321 E.04098
G1 X113.547 Y84.854 E.07862
G1 X116.107 Y86.245 E.08678
G1 X118.343 Y88.533 E.09529
G1 X119.815 Y91.554 E.1001
G1 X120.23 Y94.693 E.09431
G1 X119.68 Y97.777 E.09331
G1 X118.276 Y100.474 E.09057
G1 X116.637 Y102.172 E.0703
G1 X118.135 Y103.648 E.06264
G1 X119.667 Y106.496 E.09633
G1 X120.231 Y110.07 E.10777
G1 X119.685 Y113.163 E.09355
G1 X118.315 Y115.819 E.08902
G1 X116.487 Y117.738 E.07894
G1 X118.254 Y119.498 E.07429
G1 X119.717 Y122.332 E.095
G1 X120.227 Y125.916 E.10783
G1 X119.599 Y129.1 E.09667
G1 X118.276 Y131.565 E.08333
G1 X116.335 Y133.588 E.08351
G1 X113.157 Y135.28 E.10724
G1 X109.631 Y135.773 E.10605
G1 X106.552 Y135.182 E.09339
G1 X103.782 Y133.676 E.09391
G1 X101.688 Y131.514 E.08965
G1 X100.185 Y128.446 E.10176
G1 X99.77 Y125.306 E.09434
G1 X100.321 Y122.219 E.0934
G1 X101.759 Y119.477 E.09222
G1 X103.494 Y117.695 E.07408
G1 X101.8 Y115.981 E.07178
G1 X100.246 Y112.949 E.10148
G1 X99.77 Y109.627 E.09996
G1 X100.358 Y106.423 E.09703
G1 X101.726 Y103.832 E.08727
G1 X103.365 Y102.148 E.07
G1 X101.694 Y100.433 E.07132
G1 X100.26 Y97.596 E.09469
G1 X99.772 Y94.147 E.10376
G1 X100.4 Y90.902 E.09845
G1 X101.696 Y88.488 E.08161
G1 X102.028 Y88.666 F4200
G1 F600
G1 X102.044 Y88.636 E.00101
G1 X103.923 Y86.69 E.08058
G1 X107.263 Y84.981 E.11175
G1 X109.627 Y84.606 E.0713
G1 X110.924 Y84.696 E.03873
G1 X113.393 Y85.2 E.07506
G1 X115.858 Y86.53 E.08343
G1 X118.018 Y88.726 E.09175
G1 X119.445 Y91.636 E.09654
G1 X119.854 Y94.656 E.09078
G1 X119.314 Y97.682 E.09156
G1 X117.955 Y100.275 E.0872
G1 X116.104 Y102.18 E.07912
G1 X117.817 Y103.852 E.0713
G1 X119.32 Y106.647 E.09453
G1 X119.854 Y110.036 E.10219
G1 X119.337 Y113.016 E.09009
G1 X117.992 Y115.622 E.08735
G1 X115.957 Y117.746 E.08762
G1 X117.932 Y119.698 E.08271
G1 X119.367 Y122.477 E.09316
G1 X119.851 Y125.876 E.10227
G1 X119.253 Y128.947 E.09319
G1 X117.956 Y131.363 E.08168
G1 X116.085 Y133.304 E.0803
G1 X113.011 Y134.931 E.1036
G1 X109.611 Y135.395 E.10221
G1 X106.652 Y134.818 E.0898
G1 X104.032 Y133.392 E.08885
G1 X102.013 Y131.32 E.08617
G1 X100.554 Y128.364 E.09819
G1 X100.146 Y125.343 E.0908
G1 X100.687 Y122.314 E.09165
G1 X102.079 Y119.678 E.08879
G1 X104.025 Y117.693 E.0828
G1 X102.123 Y115.782 E.08031
G1 X100.595 Y112.805 E.09967
G1 X100.147 Y109.664 E.09451
G1 X100.705 Y106.574 E.09353
G1 X102.047 Y104.033 E.0856
G1 X103.894 Y102.148 E.07861
G1 X102.017 Y100.237 E.07979
G1 X100.611 Y97.454 E.09287
G1 X100.15 Y94.126 E.10008
G1 X100.746 Y91.055 E.09318
G1 X102 Y88.719 E.07897
G1 X102.326 Y88.893 F4200
G1 F600
G1 X102.334 Y88.879 E.00048
G1 X104.172 Y86.975 E.07883
G1 X107.352 Y85.349 E.10639
G1 X109.664 Y84.982 E.06973
G1 X110.885 Y85.072 E.03647
G1 X113.239 Y85.545 E.07152
G1 X115.611 Y86.815 E.08014
G1 X117.694 Y88.921 E.08823
G1 X119.076 Y91.717 E.0929
G1 X119.476 Y94.677 E.08897
G1 X118.948 Y97.586 E.08806
G1 X117.634 Y100.074 E.08381
G1 X115.778 Y101.972 E.07907
G1 X115.523 Y102.143 E.00915
G1 X117.498 Y104.056 E.0819
G1 X118.972 Y106.797 E.0927
G1 X119.477 Y110.003 E.09667
G1 X118.988 Y112.869 E.0866
G1 X117.67 Y115.425 E.08566
G1 X115.833 Y117.33 E.07883
G1 X115.305 Y117.635 E.01816
G1 X117.611 Y119.898 E.09624
G1 X119.017 Y122.622 E.09131
G1 X119.474 Y125.836 E.0967
G1 X118.907 Y128.795 E.08974
G1 X117.666 Y131.121 E.07853
G1 X115.834 Y133.021 E.07862
G1 X112.925 Y134.563 E.09807
G1 X109.652 Y135.019 E.09843
G1 X106.806 Y134.472 E.08632
G1 X104.281 Y133.108 E.08548
G1 X102.337 Y131.125 E.08272
G1 X100.924 Y128.283 E.09454
G1 X100.524 Y125.322 E.089
G1 X101.053 Y122.411 E.08813
G1 X102.399 Y119.88 E.08539
G1 X104.226 Y118.027 E.07751
G1 X104.782 Y117.71 E.01906
G1 X104.286 Y117.42 E.01711
G1 X102.444 Y115.584 E.07747
G1 X100.945 Y112.661 E.09785
G1 X100.523 Y109.7 E.08909
G1 X101.052 Y106.723 E.09006
G1 X102.367 Y104.234 E.08385
G1 X104.425 Y102.147 E.08731
G1 X102.34 Y100.04 E.08829
G1 X100.961 Y97.312 E.09105
G1 X100.526 Y94.167 E.09457
G1 X101.092 Y91.207 E.08977
G1 X102.298 Y88.946 E.07633
G1 X102.631 Y89.123 F4200
G1 F600
G1 X102.654 Y89.08 E.00145
G1 X104.421 Y87.26 E.07556
G1 X107.44 Y85.717 E.10099
G1 X109.701 Y85.358 E.06819
G1 X110.844 Y85.447 E.03415
G1 X113.087 Y85.891 E.06811
G1 X115.364 Y87.102 E.07682
G1 X117.37 Y89.117 E.08469
G1 X118.706 Y91.798 E.08922
G1 X119.098 Y94.697 E.08714
G1 X118.583 Y97.488 E.08454
G1 X117.314 Y99.872 E.08044
G1 X115.534 Y101.683 E.07564
G1 X114.724 Y102.135 E.02763
G1 X115.306 Y102.459 E.01984
G1 X117.18 Y104.261 E.07744
G1 X118.625 Y106.948 E.09088
G1 X119.1 Y109.971 E.09115
G1 X118.639 Y112.722 E.08309
G1 X117.348 Y115.227 E.08394
G1 X115.584 Y117.046 E.07548
G1 X114.438 Y117.674 E.03892
G1 X115.262 Y118.119 E.02789
G1 X117.29 Y120.098 E.0844
G1 X118.668 Y122.766 E.08944
G1 X119.098 Y125.796 E.09116
G1 X118.561 Y128.643 E.0863
G1 X117.346 Y130.919 E.07685
G1 X115.585 Y132.737 E.07539
G1 X112.779 Y134.214 E.09445
G1 X109.691 Y134.643 E.09286
G1 X106.958 Y134.126 E.08285
G1 X104.529 Y132.822 E.08212
G1 X102.66 Y130.929 E.07924
G1 X101.293 Y128.201 E.09089
G1 X100.902 Y125.302 E.08713
G1 X101.418 Y122.508 E.08463
G1 X102.687 Y120.125 E.08042
G1 X104.473 Y118.313 E.07578
G1 X105.591 Y117.714 E.03778
G1 X104.531 Y117.132 E.03602
G1 X102.732 Y115.337 E.0757
G1 X101.314 Y112.576 E.09245
G1 X100.901 Y109.677 E.08722
G1 X101.418 Y106.82 E.08648
G1 X102.687 Y104.435 E.08047
G1 X104.473 Y102.621 E.07583
G1 X105.298 Y102.168 E.02803
G1 X104.582 Y101.769 E.02442
G1 X102.663 Y99.843 E.08098
G1 X101.312 Y97.17 E.08921
G1 X100.902 Y94.206 E.08913
G1 X101.439 Y91.359 E.0863
G1 X102.603 Y89.176 E.07369
G1 X102.929 Y89.349 F4200
G1 F600
G1 X102.943 Y89.323 E.00088
G1 X104.67 Y87.545 E.07383
G1 X107.528 Y86.085 E.09559
G1 X109.737 Y85.734 E.06662
G1 X110.803 Y85.821 E.03186
G1 X112.936 Y86.238 E.06474
G1 X115.118 Y87.389 E.07348
G1 X117.047 Y89.314 E.08117
G1 X118.337 Y91.881 E.08557
G1 X118.722 Y94.66 E.08357
G1 X118.236 Y97.338 E.08107
G1 X117.026 Y99.628 E.07715
G1 X115.286 Y101.398 E.07393
G1 X113.913 Y102.14 E.04649
G1 X115.065 Y102.75 E.03883
G1 X116.897 Y104.512 E.07571
G1 X118.278 Y107.097 E.0873
G1 X118.723 Y109.939 E.08568
G1 X118.272 Y112.63 E.08127
G1 X117.026 Y115.028 E.0805
G1 X115.335 Y116.761 E.07212
G1 X113.626 Y117.679 E.05778
G1 X115.02 Y118.41 E.04689
G1 X116.969 Y120.298 E.08083
G1 X118.318 Y122.911 E.08759
G1 X118.72 Y125.817 E.08738
G1 X118.214 Y128.492 E.08109
G1 X117.057 Y130.676 E.07362
G1 X115.335 Y132.453 E.07371
G1 X112.694 Y133.845 E.08892
G1 X109.729 Y134.266 E.0892
G1 X107.11 Y133.78 E.07934
G1 X104.776 Y132.536 E.07878
G1 X102.983 Y130.732 E.07576
G1 X101.662 Y128.118 E.08724
G1 X101.278 Y125.339 E.08356
G1 X101.765 Y122.658 E.08116
G1 X102.975 Y120.37 E.0771
G1 X104.72 Y118.599 E.07406
G1 X106.402 Y117.718 E.05656
G1 X104.778 Y116.845 E.05492
G1 X103.019 Y115.091 E.07399
G1 X101.683 Y112.491 E.08707
G1 X101.277 Y109.713 E.08363
G1 X101.765 Y106.97 E.08299
G1 X102.975 Y104.68 E.07715
G1 X104.721 Y102.907 E.07412
G1 X106.11 Y102.17 E.04684
G1 X104.827 Y101.481 E.04338
G1 X102.985 Y99.645 E.07747
G1 X101.681 Y97.086 E.08555
G1 X101.278 Y94.244 E.0855
G1 X101.786 Y91.51 E.08283
G1 X102.901 Y89.402 E.07103
G1 X103.235 Y89.579 F4200
G1 F600
G1 X103.264 Y89.524 E.00185
G1 X104.918 Y87.83 E.07052
G1 X107.617 Y86.452 E.09027
G1 X109.773 Y86.11 E.06502
G1 X110.76 Y86.196 E.02951
G1 X112.787 Y86.585 E.06148
G1 X114.873 Y87.677 E.07013
G1 X116.725 Y89.512 E.07766
G1 X117.968 Y91.966 E.08194
G1 X118.345 Y94.624 E.07997
G1 X117.888 Y97.189 E.07761
G1 X116.738 Y99.384 E.07381
G1 X115.038 Y101.112 E.0722
G1 X113.096 Y102.145 E.06552
G1 X114.824 Y103.041 E.05798
G1 X116.614 Y104.763 E.07398
G1 X117.929 Y107.245 E.08367
G1 X118.346 Y109.965 E.08197
G1 X117.906 Y112.538 E.07775
G1 X116.737 Y114.784 E.07542
G1 X115.086 Y116.476 E.07042
G1 X112.807 Y117.684 E.07683
G1 X114.779 Y118.701 E.06609
G1 X116.65 Y120.5 E.07731
G1 X117.949 Y122.996 E.08381
G1 X118.344 Y125.779 E.08373
G1 X117.868 Y128.341 E.07762
G1 X116.736 Y130.476 E.07198
G1 X115.086 Y132.168 E.0704
G1 X112.548 Y133.496 E.08532
G1 X109.767 Y133.89 E.08366
G1 X107.26 Y133.433 E.07591
G1 X105.022 Y132.249 E.07542
G1 X103.305 Y130.534 E.07229
G1 X102.031 Y128.034 E.08358
G1 X101.655 Y125.375 E.07999
G1 X102.113 Y122.807 E.0777
G1 X103.263 Y120.615 E.07373
G1 X104.967 Y118.886 E.07231
G1 X107.22 Y117.723 E.07552
G1 X105.024 Y116.558 E.07405
G1 X103.306 Y114.845 E.07226
G1 X102.051 Y112.404 E.08176
G1 X101.654 Y109.747 E.08002
G1 X102.113 Y107.118 E.07949
G1 X103.263 Y104.924 E.07379
G1 X104.968 Y103.193 E.07237
G1 X106.927 Y102.172 E.0658
G1 X105.072 Y101.193 E.06248
G1 X103.307 Y99.446 E.07397
G1 X102.031 Y96.943 E.08368
G1 X101.656 Y94.223 E.08179
G1 X102.132 Y91.661 E.07762
G1 X103.207 Y89.632 E.0684
G1 X103.534 Y89.804 F4200
G1 F600
G1 X103.553 Y89.768 E.00121
G1 X105.166 Y88.116 E.06877
G1 X107.705 Y86.82 E.08491
G1 X109.808 Y86.487 E.06342
G1 X110.717 Y86.571 E.02719
G1 X112.638 Y86.933 E.05823
G1 X114.629 Y87.966 E.06681
G1 X116.403 Y89.711 E.07412
G1 X117.6 Y92.051 E.07829
G1 X117.969 Y94.589 E.07639
G1 X117.54 Y97.041 E.07415
G1 X116.449 Y99.139 E.07044
G1 X114.79 Y100.827 E.0705
G1 X112.274 Y102.149 E.08466
G1 X114.583 Y103.333 E.07729
G1 X116.331 Y105.014 E.07224
G1 X117.581 Y107.392 E.08002
G1 X117.969 Y109.99 E.07824
G1 X117.54 Y112.444 E.0742
G1 X116.448 Y114.541 E.07042
G1 X114.837 Y116.191 E.06869
G1 X112.461 Y117.438 E.07993
G1 X111.813 Y117.545 E.01956
G1 X111.808 Y117.86 E.00938
G1 X112.638 Y118.022 E.02519
G1 X114.539 Y118.993 E.06358
G1 X116.331 Y120.703 E.07378
G1 X117.581 Y123.083 E.08007
G1 X117.968 Y125.742 E.08004
G1 X117.52 Y128.191 E.07416
G1 X116.447 Y130.232 E.06868
G1 X114.837 Y131.884 E.06871
G1 X112.462 Y133.127 E.07985
G1 X109.803 Y133.514 E.08004
G1 X107.409 Y133.085 E.07244
G1 X105.267 Y131.961 E.07205
G1 X103.626 Y130.334 E.06883
G1 X102.4 Y127.949 E.07988
G1 X102.032 Y125.352 E.07813
G1 X102.461 Y122.956 E.0725
G1 X103.552 Y120.859 E.07041
G1 X105.214 Y119.172 E.07054
G1 X107.652 Y117.927 E.08154
G1 X108.109 Y117.842 E.01385
G1 X108.11 Y117.529 E.00932
G1 X107.412 Y117.396 E.02117
G1 X105.27 Y116.27 E.07208
G1 X103.593 Y114.599 E.07052
G1 X102.419 Y112.318 E.07641
G1 X102.031 Y109.721 E.07821
G1 X102.46 Y107.266 E.07423
G1 X103.552 Y105.169 E.07042
G1 X105.215 Y103.48 E.0706
G1 X107.751 Y102.175 E.08495
G1 X105.316 Y100.904 E.08182
G1 X103.628 Y99.246 E.07048
G1 X102.4 Y96.858 E.07998
G1 X102.032 Y94.26 E.07816
G1 X102.48 Y91.81 E.07419
G1 X103.506 Y89.857 E.06571
G1 E-3.5 F3600
;WIPE_START
G1 F3360
G1 X103.534 Y89.804 E-.06101
G1 X103.553 Y89.768 E-.04143
G1 X104.512 Y88.785 E-1.39756
;WIPE_END
G1 X107.978 Y118.249 F4200
G1 E5 F2400
G1 F600
G1 X109.844 Y117.955 E.05627
G1 X110.669 Y118.036 E.02469
G1 X112.492 Y118.371 E.05521
G1 X114.343 Y119.316 E.0619
G1 X116.047 Y120.954 E.0704
G1 X117.232 Y123.228 E.07638
G1 X117.591 Y125.706 E.07458
G1 X117.173 Y128.042 E.07069
G1 X116.126 Y130.032 E.06698
G1 X114.589 Y131.598 E.06536
G1 X112.316 Y132.778 E.07628
G1 X109.839 Y133.137 E.07455
G1 X107.504 Y132.719 E.07066
G1 X105.512 Y131.672 E.06703
G1 X103.947 Y130.134 E.06536
G1 X102.768 Y127.863 E.07622
G1 X102.409 Y125.388 E.07449
G1 X102.827 Y123.051 E.07072
G1 X103.873 Y121.059 E.06702
G1 X105.413 Y119.494 E.0654
G1 X107.795 Y118.278 E.07966
G1 X107.918 Y118.258 E.00371
G1 X107.977 Y118.631 F4200
G1 F600
G1 X109.877 Y118.331 E.0573
G1 X112.346 Y118.72 E.07445
G1 X114.146 Y119.639 E.0602
G1 X115.763 Y121.203 E.06701
G1 X116.864 Y123.315 E.07094
G1 X117.214 Y125.672 E.07098
G1 X116.825 Y127.894 E.06719
G1 X115.837 Y129.788 E.06363
G1 X114.341 Y131.312 E.06361
G1 X112.229 Y132.41 E.0709
G1 X109.874 Y132.76 E.07092
G1 X107.652 Y132.371 E.06719
G1 X105.756 Y131.384 E.06367
G1 X104.232 Y129.885 E.06367
G1 X103.136 Y127.776 E.0708
G1 X102.786 Y125.423 E.07086
G1 X103.175 Y123.199 E.06725
G1 X104.161 Y121.303 E.06366
G1 X105.66 Y119.78 E.06365
