; generated by PrusaSlicer 2.9.2 on 2025-05-25 at 18:49:33 UTC

; 

; external perimeters extrusion width = 0.42mm
; perimeters extrusion width = 0.44mm
; infill extrusion width = 0.44mm
; solid infill extrusion width = 0.44mm
; top infill extrusion width = 0.40mm
; first layer extrusion width = 0.42mm

M201 X500 Y500 Z100 E5000 ; sets maximum accelerations, mm/sec^2
M203 X500 Y500 Z10 E60 ; sets maximum feedrates, mm / sec
M204 S500 T1000 ; sets acceleration (S) and retract acceleration (R), mm/sec^2
M205 X8.00 Y8.00 Z0.40 E5.00 ; sets the jerk limits, mm/sec
M205 S0 T0 ; sets the minimum extruding and travel feed rate, mm/sec

; printing object nut_teste.stl id:0 copy 0
; stop printing object nut_teste.stl id:0 copy 0

;TYPE:Custom
G90 ; use absolute coordinates
M83 ; extruder relative mode
M104 S150 ; set temporary nozzle temp to prevent oozing during homing
M140 S60 ; set final bed temp
G4 S30 ; allow partial nozzle warmup
G28 ; home all axis
G1 Z50 F240
G1 X2.0 Y10 F3000
M104 S215 ; set final nozzle temp
M190 S60 ; wait for bed temp to stabilize
M109 S215 ; wait for nozzle temp to stabilize
G1 Z0.28 F240
G92 E0
G1 X2.0 Y140 E10 F1500 ; prime the nozzle
G1 X2.3 Y140 F5000
G92 E0
G1 X2.3 Y10 E10 F1200 ; prime the nozzle
G92 E0
G21 ; set units to millimeters
G90 ; use absolute coordinates
M83 ; use relative distances for extrusion
; Filament gcode
M107
;LAYER_CHANGE
;Z:0.2
;HEIGHT:0.2
G1 E-5 F3600
G1 Z.2 F4200
G1 X72.422 Y96.629
G1 Z.2
G1 E5 F2400
M204 S100
;TYPE:Skirt/Brim
;WIDTH:0.42
G1 F600
G1 X74.928 Y94.83 E.09189
G1 X78.088 Y93.355 E.10387
G1 X80.661 Y92.666 E.07934
G1 X83.233 Y92.412 E.07698
G1 X136.905 Y92.416 E1.59871
G1 X139.354 Y92.669 E.07334
G1 X142.31 Y93.502 E.09148
G1 X145.078 Y94.835 E.09151
G1 X147.569 Y96.622 E.09132
G1 X149.719 Y98.825 E.09169
G1 X150.746 Y100.269 E.05278
G1 X151.655 Y101.815 E.05342
G1 X152.722 Y104.179 E.07726
G1 X153.479 Y107.15 E.09132
G1 X153.709 Y110.221 E.09173
G1 X153.405 Y113.27 E.09127
G1 X152.569 Y116.243 E.09199
G1 X151.832 Y117.85 E.05266
G1 X150.957 Y119.395 E.05289
G1 X149.44 Y121.508 E.07748
G1 X147.242 Y123.652 E.09146
G1 X144.697 Y125.387 E.09175
G1 X141.9 Y126.649 E.0914
G1 X139.34 Y127.334 E.07894
G1 X136.77 Y127.588 E.07692
G1 X83.234 Y127.588 E1.59465
G1 X81.079 Y127.408 E.06441
G1 X78.37 Y126.735 E.08314
G1 X77.432 Y126.394 E.02973
G1 X74.917 Y125.165 E.08338
G1 X72.429 Y123.378 E.09124
G1 X70.553 Y121.501 E.07905
G1 X69.313 Y119.818 E.06227
G1 X68.182 Y117.878 E.06689
G1 X67.277 Y115.826 E.0668
G1 X66.518 Y112.843 E.09168
G1 X66.302 Y110.482 E.07062
G1 X66.303 Y109.508 E.02901
G1 X66.481 Y107.444 E.06171
G1 X66.654 Y106.457 E.02985
G1 X67.281 Y104.164 E.07081
G1 X68.114 Y102.259 E.06193
G1 X69.118 Y100.481 E.06082
G1 X70.112 Y99.043 E.05207
G1 X70.745 Y98.289 E.02932
G1 X72.379 Y96.671 E.0685
G1 E-3.5 F3600
;WIPE_START
G1 F3360
G1 X72.422 Y96.629 E-.06118
G1 X73.57 Y95.805 E-1.43882
;WIPE_END
G1 X74.782 Y99.186 F4200
G1 E5 F2400
G1 F600
G1 X76.907 Y97.702 E.0772
G1 X79.253 Y96.632 E.0768
G1 X81.632 Y96.024 E.07314
G1 X83.167 Y95.891 E.04589
G1 X84.695 Y95.891 E.04551
G1 X86.58 Y96.087 E.05645
G1 X88.681 Y96.659 E.06486
G1 X90.88 Y97.662 E.07199
G1 X92.974 Y99.103 E.07571
G1 X94.732 Y100.843 E.07368
G1 X95.76 Y102.274 E.05248
G1 X96.545 Y103.635 E.0468
G1 X96.998 Y104.618 E.03224
G1 X97.424 Y103.681 E.03066
G1 X98.218 Y102.296 E.04755
G1 X99.138 Y100.988 E.04763
G1 X100.95 Y99.161 E.07665
G1 X103.076 Y97.683 E.07713
G1 X105.36 Y96.643 E.07475
G1 X107.769 Y96.024 E.07409
G1 X109.289 Y95.892 E.04545
G1 X110.813 Y95.89 E.04539
G1 X112.686 Y96.082 E.05608
G1 X114.818 Y96.66 E.0658
G1 X117.018 Y97.663 E.07202
G1 X119.091 Y99.086 E.0749
G1 X120.916 Y100.9 E.07665
G1 X121.885 Y102.258 E.04969
G1 X122.638 Y103.554 E.04465
G1 X123.065 Y104.485 E.03051
G1 X123.411 Y103.72 E.02501
G1 X124.222 Y102.3 E.04871
G1 X125.122 Y101.014 E.04675
G1 X126.927 Y99.185 E.07654
G1 X129.05 Y97.701 E.07715
G1 X131.398 Y96.631 E.07686
G1 X133.777 Y96.024 E.07313
G1 X135.327 Y95.89 E.04634
G1 X136.839 Y95.891 E.04504
G1 X138.753 Y96.093 E.05733
G1 X140.765 Y96.638 E.06209
G1 X142.962 Y97.629 E.07179
G1 X145.064 Y99.059 E.07573
G1 X146.895 Y100.866 E.07663
G1 X147.851 Y102.192 E.04869
G1 X148.636 Y103.535 E.04634
G1 X149.402 Y105.22 E.05513
G1 X150.04 Y107.67 E.07541
G1 X150.233 Y110.172 E.07475
G1 X150.002 Y112.546 E.07105
G1 X149.4 Y114.787 E.06912
G1 X148.696 Y116.349 E.05103
G1 X147.894 Y117.74 E.04783
G1 X146.901 Y119.127 E.05081
G1 X145.157 Y120.864 E.07332
G1 X143.124 Y122.282 E.07383
G1 X140.725 Y123.377 E.07855
G1 X138.519 Y123.95 E.06789
G1 X136.827 Y124.109 E.05062
G1 X135.225 Y124.105 E.04772
G1 X133.564 Y123.939 E.04972
G1 X131.325 Y123.344 E.06901
G1 X129.081 Y122.319 E.07348
G1 X127.043 Y120.912 E.07377
G1 X125.262 Y119.153 E.07456
G1 X124.216 Y117.69 E.05357
G1 X123.453 Y116.362 E.04562
G1 X123.063 Y115.517 E.02772
G1 X122.686 Y116.353 E.02732
G1 X121.94 Y117.655 E.0447
G1 X121.016 Y118.981 E.04814
G1 X119.184 Y120.836 E.07766
G1 X117.086 Y122.3 E.0762
G1 X114.814 Y123.343 E.07447
G1 X112.519 Y123.948 E.0707
G1 X110.88 Y124.107 E.04905
G1 X109.279 Y124.108 E.04769
G1 X107.594 Y123.946 E.05042
G1 X105.319 Y123.345 E.07009
G1 X103.098 Y122.332 E.07271
G1 X101.029 Y120.905 E.07487
G1 X99.23 Y119.122 E.07545
G1 X98.242 Y117.739 E.05063
G1 X97.483 Y116.431 E.04505
G1 X96.994 Y115.37 E.0348
G1 X96.548 Y116.357 E.03226
G1 X95.784 Y117.686 E.04566
G1 X94.853 Y119.013 E.04828
G1 X93.045 Y120.837 E.0765
G1 X90.954 Y122.298 E.07598
G1 X88.676 Y123.344 E.07467
G1 X86.345 Y123.955 E.07178
G1 X84.736 Y124.107 E.04814
G1 X83.119 Y124.107 E.04816
G1 X81.451 Y123.944 E.04992
G1 X79.147 Y123.332 E.07101
G1 X76.933 Y122.316 E.07256
G1 X74.896 Y120.91 E.07373
G1 X73.162 Y119.201 E.07252
G1 X72.148 Y117.805 E.05139
G1 X71.331 Y116.401 E.04839
G1 X70.597 Y114.784 E.05289
G1 X69.974 Y112.427 E.07262
G1 X69.767 Y109.906 E.07534
G1 X69.989 Y107.491 E.07224
G1 X70.577 Y105.273 E.06835
G1 X71.27 Y103.716 E.05076
G1 X72.081 Y102.298 E.04866
G1 X72.98 Y101.014 E.04669
G1 X74.74 Y99.229 E.07467
G1 X75.008 Y99.494 F4200
G1 F600
G1 X75.038 Y99.463 E.00128
G1 X77.108 Y98.021 E.07514
G1 X79.362 Y96.993 E.07379
G1 X81.681 Y96.399 E.07131
G1 X83.191 Y96.267 E.04515
G1 X84.685 Y96.268 E.0445
G1 X86.496 Y96.455 E.05423
G1 X88.539 Y97.009 E.06305
G1 X90.68 Y97.982 E.07005
G1 X92.721 Y99.383 E.07374
G1 X94.436 Y101.076 E.07178
G1 X95.438 Y102.471 E.05116
G1 X96.214 Y103.816 E.04625
G1 X97.001 Y105.528 E.05612
G1 X97.755 Y103.861 E.0545
G1 X98.541 Y102.491 E.04705
G1 X99.417 Y101.241 E.04547
G1 X101.18 Y99.46 E.07465
G1 X103.247 Y98.019 E.07505
G1 X105.501 Y96.993 E.07377
G1 X107.817 Y96.398 E.07123
G1 X109.314 Y96.268 E.04476
G1 X110.803 Y96.267 E.04435
G1 X112.632 Y96.455 E.05477
G1 X114.676 Y97.009 E.06308
G1 X116.847 Y98 E.07109
G1 X118.863 Y99.387 E.07289
G1 X120.619 Y101.132 E.07374
G1 X121.564 Y102.455 E.04843
G1 X122.308 Y103.735 E.0441
G1 X123.068 Y105.402 E.05457
G1 X123.743 Y103.899 E.04908
G1 X124.545 Y102.494 E.04819
G1 X125.402 Y101.268 E.04456
G1 X127.183 Y99.463 E.07553
G1 X129.251 Y98.02 E.07511
G1 X131.539 Y96.982 E.07484
G1 X133.854 Y96.393 E.07115
G1 X135.351 Y96.267 E.04475
G1 X136.829 Y96.268 E.04402
G1 X138.67 Y96.461 E.05514
G1 X140.624 Y96.988 E.06028
G1 X142.764 Y97.95 E.06989
G1 X144.812 Y99.34 E.07373
G1 X146.598 Y101.1 E.07469
G1 X147.54 Y102.405 E.04794
G1 X148.306 Y103.717 E.04525
G1 X149.042 Y105.332 E.05287
G1 X149.665 Y107.715 E.07337
G1 X149.855 Y110.185 E.07379
G1 X149.634 Y112.464 E.0682
G1 X149.05 Y114.646 E.06728
G1 X148.356 Y116.185 E.05029
G1 X147.572 Y117.544 E.04673
G1 X146.623 Y118.871 E.04859
G1 X144.927 Y120.564 E.07138
G1 X142.951 Y121.946 E.07183
G1 X140.614 Y123.017 E.07657
G1 X138.468 Y123.576 E.06606
G1 X136.801 Y123.733 E.04987
G1 X135.235 Y123.728 E.04665
G1 X133.646 Y123.57 E.04756
G1 X131.466 Y122.995 E.06716
G1 X129.281 Y121.999 E.07153
G1 X127.295 Y120.631 E.07183
G1 X125.559 Y118.92 E.0726
G1 X124.539 Y117.494 E.05222
G1 X123.785 Y116.182 E.04507
G1 X123.058 Y114.604 E.05175
G1 X122.354 Y116.174 E.05125
G1 X121.617 Y117.461 E.04418
G1 X120.736 Y118.728 E.04597
G1 X118.953 Y120.537 E.07566
G1 X116.913 Y121.964 E.07416
G1 X114.672 Y122.994 E.07346
G1 X112.468 Y123.574 E.06788
G1 X110.853 Y123.73 E.04833
G1 X109.288 Y123.731 E.04662
G1 X107.646 Y123.572 E.04914
G1 X105.461 Y122.995 E.06731
G1 X103.27 Y121.996 E.07173
G1 X101.257 Y120.605 E.07288
G1 X99.527 Y118.889 E.07258
G1 X98.563 Y117.542 E.04934
G1 X97.813 Y116.25 E.0445
G1 X96.99 Y114.458 E.05874
G1 X96.217 Y116.177 E.05614
G1 X95.462 Y117.491 E.04514
G1 X94.574 Y118.759 E.04611
G1 X92.815 Y120.538 E.07452
G1 X90.781 Y121.962 E.07396
G1 X88.534 Y122.995 E.07366
G1 X86.294 Y123.581 E.06897
G1 X84.71 Y123.731 E.04739
G1 X83.128 Y123.73 E.04712
G1 X81.503 Y123.571 E.04863
G1 X79.29 Y122.983 E.0682
G1 X77.106 Y121.98 E.07159
G1 X75.149 Y120.629 E.07083
G1 X73.438 Y118.944 E.07153
G1 X72.459 Y117.591 E.04974
G1 X71.67 Y116.236 E.0467
G1 X70.957 Y114.672 E.0512
G1 X70.349 Y112.379 E.07066
G1 X70.144 Y109.923 E.07341
G1 X70.357 Y107.572 E.07032
G1 X70.937 Y105.385 E.0674
G1 X71.61 Y103.879 E.04913
G1 X72.404 Y102.493 E.04758
G1 X73.279 Y101.244 E.04542
G1 X74.966 Y99.536 E.07151
G1 X75.232 Y99.799 F4200
G1 F600
G1 X75.268 Y99.762 E.00154
G1 X77.28 Y98.357 E.0731
G1 X79.504 Y97.343 E.07281
G1 X81.729 Y96.773 E.06842
G1 X83.216 Y96.644 E.04446
G1 X84.656 Y96.644 E.04289
G1 X86.413 Y96.824 E.05261
G1 X88.397 Y97.359 E.06121
G1 X90.481 Y98.303 E.06815
G1 X92.468 Y99.664 E.07174
G1 X94.159 Y101.333 E.07077
G1 X95.126 Y102.683 E.04946
G1 X95.882 Y103.996 E.04513
G1 X96.505 Y105.351 E.04442
G1 X96.85 Y106.616 E.03906
G1 X97.138 Y106.616 E.00858
G1 X97.456 Y105.438 E.03634
G1 X98.087 Y104.041 E.04566
G1 X98.864 Y102.686 E.04653
G1 X99.697 Y101.495 E.04329
G1 X101.435 Y99.738 E.07361
G1 X103.448 Y98.338 E.07304
G1 X105.642 Y97.343 E.07176
G1 X107.895 Y96.768 E.06926
G1 X109.338 Y96.644 E.04314
G1 X110.775 Y96.643 E.0428
G1 X112.549 Y96.824 E.05312
G1 X114.534 Y97.359 E.06124
G1 X116.647 Y98.32 E.06914
G1 X118.635 Y99.688 E.07188
G1 X120.321 Y101.364 E.07081
G1 X121.242 Y102.652 E.04716
G1 X121.977 Y103.916 E.04355
G1 X122.687 Y105.475 E.05103
G1 X122.923 Y106.354 E.02711
G1 X123.212 Y106.354 E.00861
G1 X123.451 Y105.47 E.02728
G1 X124.075 Y104.078 E.04544
G1 X124.868 Y102.689 E.04764
G1 X125.701 Y101.497 E.04332
G1 X127.439 Y99.74 E.07361
G1 X129.452 Y98.34 E.07304
G1 X131.679 Y97.332 E.07281
G1 X133.902 Y96.768 E.06831
G1 X135.359 Y96.644 E.04356
G1 X136.8 Y96.644 E.04292
G1 X138.586 Y96.829 E.05348
G1 X140.512 Y97.349 E.05942
G1 X142.594 Y98.287 E.06802
G1 X144.585 Y99.642 E.07174
G1 X146.302 Y101.333 E.07178
G1 X147.229 Y102.619 E.04722
G1 X147.975 Y103.899 E.04413
G1 X148.681 Y105.443 E.05057
G1 X149.291 Y107.762 E.07142
G1 X149.478 Y110.165 E.07179
G1 X149.266 Y112.382 E.06634
G1 X148.69 Y114.533 E.06633
G1 X148.024 Y116.005 E.04812
G1 X147.259 Y117.333 E.04565
G1 X146.345 Y118.616 E.04692
G1 X144.698 Y120.265 E.06942
G1 X142.749 Y121.627 E.07082
G1 X140.503 Y122.656 E.07359
G1 X138.388 Y123.207 E.0651
G1 X136.793 Y123.356 E.04772
G1 X135.262 Y123.352 E.0456
G1 X133.727 Y123.202 E.04594
G1 X131.607 Y122.645 E.06529
G1 X129.481 Y121.678 E.06957
G1 X127.523 Y120.33 E.07081
G1 X125.836 Y118.663 E.07064
G1 X124.861 Y117.299 E.04994
G1 X124.116 Y116.001 E.04458
G1 X123.494 Y114.649 E.04433
G1 X123.218 Y113.638 E.03122
G1 X122.929 Y113.639 E.00861
G1 X122.712 Y114.453 E.02509
G1 X122.022 Y115.994 E.05029
G1 X121.294 Y117.266 E.04366
G1 X120.436 Y118.499 E.04474
G1 X118.723 Y120.238 E.07271
G1 X116.74 Y121.629 E.07215
G1 X114.529 Y122.644 E.07247
G1 X112.387 Y123.206 E.06596
G1 X110.844 Y123.353 E.04617
G1 X109.315 Y123.355 E.04554
G1 X107.726 Y123.203 E.04755
G1 X105.602 Y122.645 E.06541
G1 X103.47 Y121.676 E.06976
G1 X101.485 Y120.304 E.07188
G1 X99.805 Y118.633 E.07058
G1 X98.885 Y117.345 E.04715
G1 X98.152 Y116.084 E.04345
G1 X97.464 Y114.587 E.04907
G1 X97.144 Y113.398 E.03668
G1 X96.855 Y113.399 E.00861
G1 X96.562 Y114.492 E.03371
G1 X95.885 Y115.997 E.04916
G1 X95.148 Y117.282 E.04412
G1 X94.274 Y118.53 E.04538
G1 X92.584 Y120.239 E.07159
G1 X90.608 Y121.627 E.07193
G1 X88.391 Y122.645 E.07267
G1 X86.214 Y123.212 E.06701
G1 X84.684 Y123.354 E.04577
G1 X83.155 Y123.354 E.04554
G1 X81.584 Y123.202 E.04701
G1 X79.432 Y122.633 E.0663
G1 X77.306 Y121.66 E.06964
G1 X75.377 Y120.329 E.06981
G1 X73.714 Y118.687 E.06961
G1 X72.77 Y117.378 E.04807
G1 X72.009 Y116.071 E.04505
G1 X71.318 Y114.559 E.04952
G1 X70.717 Y112.299 E.06966
G1 X70.521 Y109.909 E.07143
G1 X70.731 Y107.623 E.06838
G1 X71.298 Y105.497 E.06554
G1 X71.942 Y104.058 E.04696
G1 X72.718 Y102.702 E.04654
G1 X73.559 Y101.497 E.04377
G1 X75.19 Y99.842 E.06921
G1 X75.459 Y100.106 F4200
G1 F600
G1 X75.524 Y100.04 E.00276
G1 X77.482 Y98.676 E.07108
G1 X79.644 Y97.693 E.07074
G1 X81.806 Y97.142 E.06646
G1 X83.24 Y97.02 E.04287
G1 X84.646 Y97.021 E.04188
G1 X86.36 Y97.197 E.05132
G1 X88.256 Y97.709 E.0585
G1 X90.282 Y98.624 E.06622
G1 X92.216 Y99.944 E.06975
G1 X93.862 Y101.566 E.06883
G1 X94.814 Y102.895 E.04869
G1 X95.543 Y104.162 E.04354
G1 X96.156 Y105.494 E.04368
G1 X96.762 Y107.735 E.06915
G1 X96.825 Y108.436 E.02096
G1 X97.169 Y108.437 E.01025
G1 X97.236 Y107.711 E.02172
G1 X97.806 Y105.579 E.06574
G1 X98.418 Y104.22 E.0444
G1 X99.187 Y102.881 E.04599
G1 X99.976 Y101.749 E.0411
G1 X101.691 Y100.015 E.07264
G1 X103.62 Y98.675 E.06996
G1 X105.782 Y97.693 E.07073
G1 X107.973 Y97.137 E.06733
G1 X109.361 Y97.021 E.04149
G1 X110.765 Y97.02 E.04182
G1 X112.496 Y97.197 E.05183
G1 X114.392 Y97.709 E.0585
G1 X116.447 Y98.64 E.0672
G1 X118.382 Y99.968 E.06991
G1 X120.024 Y101.597 E.0689
G1 X120.93 Y102.864 E.0464
G1 X121.646 Y104.098 E.0425
G1 X122.337 Y105.617 E.04971
G1 X122.921 Y107.818 E.06783
G1 X123.21 Y107.819 E.00861
G1 X123.802 Y105.61 E.06812
G1 X124.415 Y104.24 E.04471
G1 X125.183 Y102.897 E.04608
G1 X125.981 Y101.75 E.04162
G1 X127.669 Y100.039 E.07159
G1 X129.624 Y98.676 E.07099
G1 X131.788 Y97.693 E.0708
G1 X133.949 Y97.142 E.06643
G1 X135.383 Y97.02 E.04287
G1 X136.79 Y97.021 E.04191
G1 X138.503 Y97.197 E.05129
G1 X140.399 Y97.709 E.0585
G1 X142.424 Y98.624 E.06619
G1 X144.358 Y99.944 E.06975
G1 X146.025 Y101.59 E.06978
G1 X146.917 Y102.831 E.04552
G1 X147.645 Y104.081 E.04309
G1 X148.332 Y105.585 E.04925
G1 X148.916 Y107.808 E.06846
G1 X149.101 Y110.178 E.07081
G1 X148.892 Y112.33 E.0644
G1 X148.34 Y114.392 E.06358
G1 X147.693 Y115.825 E.04683
G1 X146.946 Y117.122 E.04458
G1 X146.067 Y118.361 E.04525
G1 X144.468 Y119.965 E.06746
G1 X142.547 Y121.309 E.06983
G1 X140.361 Y122.306 E.07157
G1 X138.308 Y122.838 E.06317
G1 X136.785 Y122.979 E.04556
G1 X135.29 Y122.976 E.04453
G1 X133.778 Y122.828 E.04525
G1 X131.748 Y122.294 E.06252
G1 X129.68 Y121.358 E.06761
G1 X127.776 Y120.05 E.06881
G1 X126.133 Y118.431 E.06871
G1 X125.173 Y117.087 E.0492
G1 X124.447 Y115.821 E.04347
G1 X123.843 Y114.506 E.0431
G1 X123.213 Y112.173 E.07198
G1 X122.924 Y112.174 E.00861
G1 X122.362 Y114.314 E.0659
G1 X121.69 Y115.815 E.04899
G1 X120.979 Y117.057 E.04263
G1 X120.135 Y118.27 E.04402
G1 X118.466 Y119.961 E.07077
G1 X116.538 Y121.31 E.07009
G1 X114.387 Y122.295 E.07047
G1 X112.336 Y122.832 E.06315
G1 X110.817 Y122.977 E.04545
G1 X109.323 Y122.978 E.0445
G1 X107.807 Y122.834 E.04536
G1 X105.744 Y122.295 E.06351
G1 X103.642 Y121.34 E.06877
G1 X101.739 Y120.025 E.0689
G1 X100.082 Y118.377 E.06961
G1 X99.206 Y117.148 E.04496
G1 X98.491 Y115.919 E.04235
G1 X97.814 Y114.444 E.04834
G1 X97.231 Y112.26 E.06733
G1 X97.167 Y111.562 E.02088
G1 X96.824 Y111.562 E.01022
G1 X96.752 Y112.318 E.02262
G1 X96.211 Y114.352 E.06269
G1 X95.553 Y115.818 E.04786
G1 X94.834 Y117.072 E.04306
G1 X93.974 Y118.301 E.04468
G1 X92.329 Y119.961 E.06961
G1 X90.405 Y121.308 E.06996
G1 X88.25 Y122.295 E.0706
G1 X86.135 Y122.843 E.06508
G1 X84.658 Y122.978 E.04418
G1 X83.165 Y122.977 E.04447
G1 X81.636 Y122.828 E.04576
G1 X79.574 Y122.284 E.06352
G1 X77.506 Y121.34 E.06771
G1 X75.63 Y120.048 E.06785
G1 X73.99 Y118.43 E.06862
G1 X73.082 Y117.166 E.04636
G1 X72.348 Y115.905 E.04346
